symbols/web/flip_camera_android/materialsymbolsrounded/flip_camera_android_wght200grad200_48px.svg

<svg xmlns="http://www.w3.org/2000/svg" height="48" width="48"><path d="M24 28.15q-1.75 0-2.975-1.225T19.8 23.95q0-1.85 1.225-3.05Q22.25 19.7 24 19.7q1.85 0 3.05 1.2 1.2 1.2 1.2 3.05 0 1.75-1.2 2.975T24 28.15Zm-17.8-9.2q-.75 0-1.225-.475Q4.5 18 4.5 17.25v-7.7q0-.4.325-.725Q5.15 8.5 5.6 8.5t.775.325q.325.325.325.725v5.25q2.8-4.55 7.325-7.45Q18.55 4.45 24 4.45q6.35 0 11.45 3.675t7.05 9.625q.15.5-.15.85t-.8.35q-.4 0-.775-.25t-.475-.65Q38.45 12.9 34 9.775 29.55 6.65 24 6.65q-5.1 0-9.3 2.8-4.2 2.8-6.7 7.3h5.8q.45 0 .75.325t.3.775q0 .45-.3.775t-.75.325ZM24 43.5q-6.3 0-11.4-3.675Q7.5 36.15 5.55 30.1q-.15-.4.125-.775t.825-.375q.4 0 .775.275t.475.625q1.85 5.2 6.275 8.325Q18.45 41.3 24 41.3q5.15 0 9.325-2.8 4.175-2.8 6.725-7.3h-5.8q-.45 0-.775-.35T33.15 30q0-.4.325-.725.325-.325.775-.325h7.55q.75 0 1.225.5.475.5.475 1.2v7.7q0 .45-.325.775t-.725.325q-.5 0-.825-.325-.325-.325-.325-.775V33.1q-2.75 4.6-7.3 7.5-4.55 2.9-10 2.9Z"/></svg>

<svg xmlns="http://www.w3.org/2000/svg" height="48" width="48"><path d="M24 28.15Q22.25 28.15 21.025 26.925Q19.8 25.7 19.8 23.95Q19.8 22.1 21.025 20.9Q22.25 19.7 24 19.7Q25.85 19.7 27.05 20.9Q28.25 22.1 28.25 23.95Q28.25 25.7 27.05 26.925Q25.85 28.15 24 28.15ZM6.2 18.95Q5.45 18.95 4.975 18.475Q4.5 18 4.5 17.25V9.55Q4.5 9.15 4.825 8.825Q5.15 8.5 5.6 8.5Q6.05 8.5 6.375 8.825Q6.7 9.15 6.7 9.55V14.8Q9.5 10.25 14.025 7.35Q18.55 4.45 24 4.45Q30.35 4.45 35.45 8.125Q40.55 11.8 42.5 17.75Q42.65 18.25 42.35 18.6Q42.05 18.95 41.55 18.95Q41.15 18.95 40.775 18.7Q40.4 18.45 40.3 18.05Q38.45 12.9 34 9.775Q29.55 6.65 24 6.65Q18.9 6.65 14.7 9.45Q10.5 12.25 8 16.75H13.8Q14.25 16.75 14.55 17.075Q14.85 17.4 14.85 17.85Q14.85 18.3 14.55 18.625Q14.25 18.95 13.8 18.95ZM24 43.5Q17.7 43.5 12.6 39.825Q7.5 36.15 5.55 30.1Q5.4 29.7 5.675 29.325Q5.95 28.95 6.5 28.95Q6.9 28.95 7.275 29.225Q7.65 29.5 7.75 29.85Q9.6 35.05 14.025 38.175Q18.45 41.3 24 41.3Q29.15 41.3 33.325 38.5Q37.5 35.7 40.05 31.2H34.25Q33.8 31.2 33.475 30.85Q33.15 30.5 33.15 30Q33.15 29.6 33.475 29.275Q33.8 28.95 34.25 28.95H41.8Q42.55 28.95 43.025 29.45Q43.5 29.95 43.5 30.65V38.35Q43.5 38.8 43.175 39.125Q42.85 39.45 42.45 39.45Q41.95 39.45 41.625 39.125Q41.3 38.8 41.3 38.35V33.1Q38.55 37.7 34 40.6Q29.45 43.5 24 43.5Z"/></svg>
